X:096 
T:Kevin Mahon's (reel) 
S:Donnelly < Jones
F:file ID: cre.4/096kevin_m
B:CRE4.130 (RÃÂÃÂÃÂÃÂ­l ChaoimhÃÂÃÂÃÂÃÂ­n UÃÂÃÂÃÂÃÂ­ MhathÃÂÃÂÃÂÃÂºna)
N:[1] First four notes of mm 1 and 5 can be played /dABC/. 
N:[2] Coda added to audio file.
Q:180
L:1/8
M:4/4
R:reel
K:D
E|DA,B,C DCDE|FGAF GFGB|Adfd d2fd|gfed cAGE|
DA,B,C DCDE|FGAF GFGB|Adfd geag|faec Add:|
|:e|fddc dfaf|gfga bgeg|fgaf dfaf|gfed cAGE|
D3F ADFA|GB B2 dBGB|Adfd geag|1 faec Add:|\
[2 faec add2-|d8|]

%%%


